docs/styles/img/icons/socialSubscribe/youtube.svg

<svg width="27" height="27" viewBox="0 0 27 27" fill="none" xmlns="http://www.w3.org/2000/svg">
<path d="M25.621 7.17358C25.3293 6.08918 24.4743 5.23436 23.3901 4.94236C21.4093 4.40039 13.486 4.40039 13.486 4.40039C13.486 4.40039 5.56304 4.40039 3.58226 4.92181C2.51887 5.2135 1.64303 6.08933 1.35135 7.17358C0.830078 9.15421 0.830078 13.2618 0.830078 13.2618C0.830078 13.2618 0.830078 17.39 1.35135 19.35C1.64334 20.4342 2.49801 21.289 3.58241 21.581C5.5839 22.1232 13.4863 22.1232 13.4863 22.1232C13.4863 22.1232 21.4093 22.1232 23.3901 21.6017C24.4745 21.3099 25.3293 20.4551 25.6213 19.3708C26.1424 17.39 26.1424 13.2826 26.1424 13.2826C26.1424 13.2826 26.1633 9.15421 25.621 7.17358ZM10.9634 17.0565V9.46706L17.552 13.2618L10.9634 17.0565Z" fill="#656565"/>
</svg>

<svg width="27" height="27" fill="none" xmlns="http://www.w3.org/2000/svg"><path d="M25.621 7.174a3.171 3.171 0 00-2.23-2.232C21.408 4.4 13.485 4.4 13.485 4.4s-7.923 0-9.904.522a3.235 3.235 0 00-2.23 2.252C.83 9.154.83 13.262.83 13.262s0 4.128.521 6.088a3.172 3.172 0 002.231 2.231c2.002.542 9.904.542 9.904.542s7.923 0 9.904-.521a3.171 3.171 0 002.231-2.231c.521-1.981.521-6.088.521-6.088s.021-4.129-.521-6.11zm-14.658 9.882V9.467l6.589 3.795-6.589 3.794z" fill="#656565"/></svg>
